Adwaita++-Dark/actions/16/view-calendar-special-occasion.svg

<svg height="16" viewBox="0 0 16 16" width="16" xmlns="http://www.w3.org/2000/svg">
  <path d="m3 1c-2.25 0-2 2-2 2v12h14v-12c0-2-2-2-2-2zm0 2h10v.1640625l-6.0292969 6.8984375-2.25-2.25c-.3763-.3764-1.0611-.3763-1.4375 0-.1882.1882-.2832031.45345-.2832031.71875 0 .2654.0950031.53055.2832031.71875l3 3 .78125.75.6875-.8125 5.2480469-5.9980469v6.8105469h-5.9355469-4.0644531v-4.46875z" fill="#e6ddff"/>
</svg>

<svg xmlns="http://www.w3.org/2000/svg" width="16" height="16" viewBox="0 0 16 16">
 <defs>
  <style id="current-color-scheme" type="text/css">
   .ColorScheme-Text { color:#E6DDFF; } .ColorScheme-Highlight { color:#4285f4; }
  </style>
 </defs>
 <path style="fill:currentColor" class="ColorScheme-Text" d="M 3 1 C 0.75 1 1 3 1 3 L 1 15 L 15 15 L 15 3 C 15 1 13 1 13 1 L 3 1 z M 3 3 L 13 3 L 13 3.1640625 L 6.9707031 10.0625 L 4.7207031 7.8125 C 4.3444031 7.4361 3.6596031 7.4362 3.2832031 7.8125 C 3.0950031 8.0007 3 8.26595 3 8.53125 C 3 8.79665 3.0950031 9.0618 3.2832031 9.25 L 6.2832031 12.25 L 7.0644531 13 L 7.7519531 12.1875 L 13 6.1894531 L 13 13 L 7.0644531 13 L 3 13 L 3 8.53125 L 3 3 z"/>
</svg>
